X:1
T:First Street Shuffle
M:4/4
L:1/8
Q:C4=120
C:Paul Rosen
S:Copyright 2004, Paul Rosen
R:Old Time
K:Am
"Am"e2gge2g2|a2gge2ee|e2gge2dd|"E"B2BBB2BB|
"Am"e2gge2g2|a2gge2ee|eged "G"BAG2|"Am"A8:|:
"F"F2FGA2AB|"Am"c2B2A4|"G"G2GABAG2|"E"E8|
"F"F2FGA2AB|"Am"c2d2e4|eged "G"BAG2|"Am"A8:|
